static/images/bg-main.svg

<svg height="614" viewBox="0 0 689 614" width="689" xmlns="http://www.w3.org/2000/svg" xmlns:xlink="http://www.w3.org/1999/xlink"><linearGradient id="a" x1="0%" x2="70.712825%" y1="87.674627%" y2="20.76372%"><stop offset="0" stop-color="#17ead9"/><stop offset="1" stop-color="#02afde"/></linearGradient><path d="m212.730688 453.844345 926.570662-239.960933c53.46465-13.84614 108.03082 18.271008 121.87696 71.735659 3.68545 14.230746 4.18809 29.099019 1.47215 43.546173l-54.92056 292.143767-162.16478 456.468869c-18.48838 52.04194-75.664512 79.24248-127.706458 60.7541-9.830024-3.49221-19.053078-8.50104-27.334509-14.84476l-704.241089-539.46092c-32.444124-24.852763-38.598138-71.301067-13.745375-103.745191 10.048054-13.117265 24.197208-22.494214 40.192999-26.636764z" fill="url(#a)" fill-rule="evenodd" transform="matrix(.87461971 -.48480962 .48480962 .87461971 -382.333642 99.559883)"/></svg>

<?xml version="1.0" encoding="UTF-8"?>
<svg width="689px" height="614px" viewBox="0 0 689 614" version="1.1" xmlns="http://www.w3.org/2000/svg" xmlns:xlink="http://www.w3.org/1999/xlink">
    <!-- Generator: sketchtool 46.2 (44496) - http://www.bohemiancoding.com/sketch -->
    <title>C0A8A963-8E7E-4C4B-911B-BF714B5D1127</title>
    <desc>Created with sketchtool.</desc>
    <defs>
        <linearGradient x1="0%" y1="87.6746272%" x2="70.7128246%" y2="20.7637198%" id="linearGradient-1">
            <stop stop-color="#17EAD9" offset="0%"></stop>
            <stop stop-color="#02AFDE" offset="100%"></stop>
        </linearGradient>
    </defs>
    <g id="Page-1" stroke="none" stroke-width="1" fill="none" fill-rule="evenodd">
        <g id="Home-Page-10/04/2017-screen-Install-Rakam" transform="translate(-511.000000, 0.000000)" fill="url(#linearGradient-1)">
            <g id="mocup" transform="translate(368.000000, -330.000000)">
                <path d="M212.730688,453.844345 L1139.30135,213.883412 L1139.30135,213.883412 C1192.766,200.037272 1247.33217,232.15442 1261.17831,285.619071 C1264.86376,299.849817 1265.3664,314.71809 1262.65046,329.165244 L1207.7299,621.309011 L1045.56512,1077.77788 L1045.56512,1077.77788 C1027.07674,1129.81982 969.900608,1157.02036 917.858662,1138.53198 C908.028638,1135.03977 898.805584,1130.03094 890.524153,1123.68722 L186.283064,584.2263 L186.283064,584.2263 C153.83894,559.373537 147.684926,512.925233 172.537689,480.481109 C182.585743,467.363844 196.734897,457.986895 212.730688,453.844345 Z" id="bg-menu" transform="translate(710.825592, 677.497205) rotate(-29.000000) translate(-710.825592, -677.497205) "></path>
            </g>
        </g>
    </g>
</svg>
